X:25
T:Apple Blossom
C:Major Franklin
A:Texas Fiddle Favorites
N:Transcribed by Tristan Scroggins
R:bluegrass
L:1/8
Q:1/4=200
M:4/4
K:D
[fB][aB] z[fB] [a4B4] | fa fe df ed | [fB][bB] zf af bf | af ed BA FA | DF Bc df bf | 
af ed BA FA | Bd BA FB AF | ED B,G, A,D D2 | [fB][aB] z[f/B/]a/ [f4B4] | fa fe df ed | 
(3f/^g/a/b z(3b/a/g/ fz2(3f/g/a/ | b2 (3a^gf ed Bd | (3ABc de (3f^ga bf | af ed BA FA | 
Bd BA FB AF | ED B,G, A,D D2 | [E/D/]F/A2[FD] [A4F4A,4] | BA FA Bd BF | D2 FD DE FD | 
EF EC A,C EC | D2 FD AF DA | BA FA Bc dB | [eA][f2B2][f2B2][gd] [fB][eA] | dB AG FD D2 | 
[E/D/][F/D/]A2[FD] [A4F4A,4] | BA FA Bc dB | DD FE DE FD | EF EC A,E CE | DD FF AF DA | 
BA FA Bc dB | [eA][f2B2][f2B2][gd] [fB][eA] | dB AG FE (3DCB, | A,2 (3A,B,C D2 A,D | 
F2 EF AF DF | BA FA Bc dB | AF EA FD (3zCB, | A,2 G,A, D2 B,D | F2 EF AF D2 | 
BA FA Bc dB | AF EA FD D2 | (3=CB,A, z2 ^C/[D7/2D7/2] | [FD][FD] z[FD] [F4D4] | 
BA FA Bc dB | AF EA FE DB, | A,D B,A, DB, A,D | G/F/E FG AF DF | BA FA Bc dB | 
AF EA FD D2 | 

